X:271
T: VERNEHMET IHR FREUNDE WAS WIR EUCH F[ERK2LAERN
N: E0867A
O: Europa, Mitteleuropa, Deutschland, Franken
R: Hochzeits -, Ehestands - Lied
M: 6/8
L: 1/16
K: F
c2 | c2A2c2c2A2f2 | d2d2d2d4
f2 | c3dc2c2B2A2 | A6G4
c2 | c2A2c2c2A2f2 | d2d2d2d4
f2 | c3dc2c2B2A2 | A6G4
c2 | B4G2G4G2 | F4A2c4
c2 | B4G2G4G2 | F4A2c4
c2 | c3Ac2c2A2c2 | f6
d6 | c3dc2c2B2G2 | F6z4

